svgs/thin/house.svg

<svg xmlns="http://www.w3.org/2000/svg" viewBox="0 0 576 512"><!--! Font Awesome Pro 6.6.0 by @fontawesome - https://fontawesome.com License - https://fontawesome.com/license (Commercial License) Copyright 2024 Fonticons, Inc. --><path d="M293.3 2c-3-2.7-7.6-2.7-10.6 0L2.7 250c-3.3 2.9-3.6 8-.7 11.3s8 3.6 11.3 .7L64 217.1 64 448c0 35.3 28.7 64 64 64l320 0c35.3 0 64-28.7 64-64l0-230.9L562.7 262c3.3 2.9 8.4 2.6 11.3-.7s2.6-8.4-.7-11.3L293.3 2zM80 448l0-245.1L288 18.7 496 202.9 496 448c0 26.5-21.5 48-48 48l-80 0 0-168c0-13.3-10.7-24-24-24l-112 0c-13.3 0-24 10.7-24 24l0 168-80 0c-26.5 0-48-21.5-48-48zm144 48l0-168c0-4.4 3.6-8 8-8l112 0c4.4 0 8 3.6 8 8l0 168-128 0z"/></svg>

<svg xmlns="http://www.w3.org/2000/svg" viewBox="0 0 576 512"><!--! Font Awesome Pro 6.4.0 by @fontawesome - https://fontawesome.com License - https://fontawesome.com/license (Commercial License) Copyright 2023 Fonticons, Inc. --><path d="M293.3 2c-3-2.7-7.6-2.7-10.6 0L2.7 250c-3.3 2.9-3.6 8-.7 11.3s8 3.6 11.3 .7L64 217.1V448c0 35.3 28.7 64 64 64H448c35.3 0 64-28.7 64-64V217.1L562.7 262c3.3 2.9 8.4 2.6 11.3-.7s2.6-8.4-.7-11.3L293.3 2zM80 448V202.9L288 18.7 496 202.9V448c0 26.5-21.5 48-48 48H368V328c0-13.3-10.7-24-24-24H232c-13.3 0-24 10.7-24 24V496H128c-26.5 0-48-21.5-48-48zm144 48V328c0-4.4 3.6-8 8-8H344c4.4 0 8 3.6 8 8V496H224z"/></svg>
